X: 34584
T: Rising Sun, The
R: reel
M: 4/4
K: Dmajor
dA A2 BA A2|(3Bcd eg fdec|dA A2 AF F2|EGFE D2 (3ABc|
dA A2 BAFA|(3Bcd eg fdec|dA A2 AF F2|EGFE D3 A||
defg afed|cAeA fAeA|defg afbf|afef d3 c|
defg afed|cAeA fAeA|defd efge|f2 af efge||

